media/squirrel.svg

<?xml version="1.0" encoding="iso-8859-1"?>
<!-- Generator: Adobe Illustrator 16.0.0, SVG Export Plug-In . SVG Version: 6.00 Build 0)  -->
<!DOCTYPE svg PUBLIC "-//W3C//DTD SVG 1.1//EN" "http://www.w3.org/Graphics/SVG/1.1/DTD/svg11.dtd">
<svg version="1.1" id="Capa_1" xmlns="http://www.w3.org/2000/svg" xmlns:xlink="http://www.w3.org/1999/xlink" x="0px" y="0px"
	 width="160.472px" height="160.472px" viewBox="0 0 160.472 160.472" style="enable-background:new 0 0 160.472 160.472;"
	 xml:space="preserve">
<g>
	<path d="M43.555,81.296c-1.691,7.068-6.831,14.174-6.831,14.174s-18.426,1.903-23.087-6.191L7.749,79.096
		c4.843,0.301,11.225-2.148,16.519-5.202c1.26-0.728,2.524-1.537,3.753-2.395c1.222,0.08,2.524,0.222,3.364,0.483
		C34.582,72.945,40.289,75.454,43.555,81.296z M20.292,68.793c-0.18-4.975,3.032-8.628,5.378-9.632
		c2.465-1.052,5.324-1.537,8.997-1.537c0.673,0,1.294,0.06,1.961,0.084c0.05-0.894-0.038-1.757-0.487-2.535
		c-5.416-9.383-15.126-8.644-24.506-3.236l-7.271-9.851l-1.859,6.444l6.775,4.929C1.382,58.823-2.819,66.24,2.134,74.804
		c2.427,4.199,10.56,2.585,18.334-1.309L20.292,68.793z M159.72,48.367c-7.506-10.578-22.603-14.256-28.389-5.731
		c-4.048,5.955-1.703,15.116,7.037,26.563c10.948,14.32,13.016,26.15,9.385,38.806c-7.758,27.011-29.779,30.737-50.554,35.683
		c-12.526,9.758-29.458,9.329-34.099,12.286c-1.994,1.274-7.065,1.167-8.093,0.493c-1.038-0.677,1.978-1.939,2.833-2.456
		c-2.338,0.072-4.593,0.805-6.444,1.482c0.487-1.956,3.829-6.388,5.583-6.271c-3.244-3.114-12.615-2.625-20.137-0.369
		c-0.134-2.584,0.96-4.744,3.124-5.866c2.442-1.263,4.105-1.855,8.948-2.638c0.042-5.073-7.141-9.926-8.197-16.751
		c-2.344-15.1,6.65-17.355,8.081-27.062c2.998-20.438-12.531-26.355-16.479-27.563c-2.308-0.705-7.033-1.38-8.884-0.307
		c-0.128-3.514,2.172-6.083,3.482-6.638c7.103-3.034,17.312,0.509,19.769-1.627c0.156-3.931,1.302-9.878,2.024-11.886
		c0.958-2.661-8.9,1.86-14.03-3.085c-1.739-1.679-5.73-2.733-5.783-6.045C28.785,32.8,39.998,25.026,50.416,20.349
		c-0.214-1.385-0.11-11.154,3.404-9.64c3.519,1.513,5.931,5.235,5.931,5.235S64.021,1.302,67.355,3.8
		c3.332,2.489,4.294,16.086,5.588,18.354c1.297,2.27,3.992,2.04,6.667,8.299c4.083,9.56-1.411,12.009,2.523,18.932
		c7.361,12.96,30.893,36.059,29.15,64.078c-0.297,4.861-1.143,9.041-2.293,12.76c0.017,0,0.032,0.013,0.04,0.013
		c13.577-37.626-11.806-60.919-20.502-85.413c3.728-14.713,12.239-27.888,27.984-32.847C139.679,0.701,165.203,18.926,159.72,48.367
		z M50.658,28.687c-0.855-1.491-3.43-1.617-5.738-0.285c-2.309,1.335-3.477,3.619-2.615,5.11c0.855,1.493,3.425,1.627,5.731,0.292
		C50.343,32.47,51.513,30.177,50.658,28.687z M44.47,29.173c-1.467,0.848-2.12,2.449-1.467,3.589
		c0.651,1.138,2.373,1.362,3.839,0.525c1.469-0.848,2.128-2.451,1.469-3.588C47.652,28.561,45.939,28.314,44.47,29.173z"/>
</g>
<g>
</g>
<g>
</g>
<g>
</g>
<g>
</g>
<g>
</g>
<g>
</g>
<g>
</g>
<g>
</g>
<g>
</g>
<g>
</g>
<g>
</g>
<g>
</g>
<g>
</g>
<g>
</g>
<g>
</g>
</svg>

<svg width="160.472" height="160.472" viewBox="0 0 160.472 160.472" xmlns="http://www.w3.org/2000/svg" xmlns:xlink="http://www.w3.org/1999/xlink" id="Capa_1" overflow="hidden"><g><path d="M43.555 81.296C41.864 88.364 36.724 95.47 36.724 95.47 36.724 95.47 18.298 97.373 13.637 89.279L7.749 79.096C12.592 79.397 18.974 76.948 24.268 73.894 25.528 73.166 26.792 72.357 28.021 71.499 29.243 71.579 30.545 71.721 31.385 71.982 34.582 72.945 40.289 75.454 43.555 81.296ZM20.292 68.793C20.112 63.818 23.324 60.165 25.67 59.161 28.135 58.109 30.994 57.624 34.667 57.624 35.34 57.624 35.961 57.684 36.628 57.708 36.678 56.814 36.59 55.951 36.141 55.173 30.725 45.79 21.015 46.529 11.635 51.937L4.364 42.086 2.505 48.53 9.28 53.459C1.382 58.823-2.819 66.24 2.134 74.804 4.561 79.003 12.694 77.389 20.468 73.495L20.292 68.793ZM159.72 48.367C152.214 37.789 137.117 34.111 131.331 42.636 127.283 48.591 129.628 57.752 138.368 69.199 149.316 83.519 151.384 95.349 147.753 108.005 139.995 135.016 117.974 138.742 97.199 143.688 84.673 153.446 67.741 153.017 63.1 155.974 61.106 157.248 56.035 157.141 55.007 156.467 53.969 155.79 56.985 154.528 57.84 154.011 55.502 154.083 53.247 154.816 51.396 155.493 51.883 153.537 55.225 149.105 56.979 149.222 53.735 146.108 44.364 146.597 36.842 148.853 36.708 146.269 37.802 144.109 39.966 142.987 42.408 141.724 44.071 141.132 48.914 140.349 48.956 135.276 41.773 130.423 40.717 123.598 38.373 108.498 47.367 106.243 48.798 96.536 51.796 76.098 36.267 70.181 32.319 68.973 30.011 68.268 25.286 67.593 23.435 68.666 23.307 65.152 25.607 62.583 26.917 62.028 34.02 58.994 44.229 62.537 46.686 60.401 46.842 56.47 47.988 50.523 48.71 48.515 49.668 45.854 39.81 50.375 34.68 45.43 32.941 43.751 28.95 42.697 28.897 39.385 28.785 32.8 39.998 25.026 50.416 20.349 50.202 18.964 50.306 9.195 53.82 10.709 57.339 12.222 59.751 15.944 59.751 15.944 59.751 15.944 64.021 1.302 67.355 3.8 70.687 6.289 71.649 19.886 72.943 22.154 74.24 24.424 76.935 24.194 79.61 30.453 83.693 40.013 78.199 42.462 82.133 49.385 89.494 62.345 113.026 85.444 111.283 113.463 110.986 118.324 110.14 122.504 108.99 126.223 109.007 126.223 109.022 126.236 109.03 126.236 122.607 88.61 97.224 65.317 88.528 40.823 92.256 26.11 100.767 12.935 116.512 7.976 139.679 0.701 165.203 18.926 159.72 48.367ZM50.658 28.687C49.803 27.196 47.228 27.07 44.92 28.402 42.611 29.737 41.443 32.021 42.305 33.512 43.16 35.005 45.73 35.139 48.036 33.804 50.343 32.47 51.513 30.177 50.658 28.687ZM44.47 29.173C43.003 30.021 42.35 31.622 43.003 32.762 43.654 33.9 45.376 34.124 46.842 33.287 48.311 32.439 48.97 30.836 48.311 29.699 47.652 28.561 45.939 28.314 44.47 29.173Z" fill="#2F4F4F"/></g><g></g><g></g><g></g><g></g><g></g><g></g><g></g><g></g><g></g><g></g><g></g><g></g><g></g><g></g><g></g></svg>
